svgs/sharp-light/shoe-prints.svg

<svg xmlns="http://www.w3.org/2000/svg" viewBox="0 0 640 512"><!--! Font Awesome Pro 6.6.0 by @fontawesome - https://fontawesome.com License - https://fontawesome.com/license (Commercial License) Copyright 2024 Fonticons, Inc. --><path d="M327.6 128l6.8 3.4 117.4 58.7L608 151l0-64L445.4 32.9 288 59.1l0 68.9 32 0 7.6 0zM288 160l-32 0 0-32 0-96L448 0 640 64l0 112L448 224 320 160l-32 0zm-160 0l0-16 0-96 0-16 16 0 80 0 0 32-64 0 0 64 64 0 0 32-80 0-16 0zm71.6 224l-7.6 0-32 0 0 68.9 157.4 26.2L480 424.9l0-63.9L323.7 321.9 206.3 380.6l-6.8 3.4zM160 352l32 0 128-64 192 48 0 112L320 512 128 480l0-96 0-32 32 0zM0 352l16 0 80 0 0 32-64 0 0 64 64 0 0 32-80 0L0 480l0-16 0-96 0-16z"/></svg>

<svg xmlns="http://www.w3.org/2000/svg" viewBox="0 0 640 512"><!--! Font Awesome Pro 6.4.2 by @fontawesome - https://fontawesome.com License - https://fontawesome.com/license (Commercial License) Copyright 2023 Fonticons, Inc. --><path d="M327.6 128l6.8 3.4 117.4 58.7L608 151v-64L445.4 32.9 288 59.1V128h32 7.6zM288 160H256V128 32L448 0 640 64V176L448 224 320 160H288zm-160 0V144 48 32h16 80V64H160v64h64v32H144 128zm71.6 224H192 160v68.9l157.4 26.2L480 424.9V361L323.7 321.9 206.3 380.6l-6.8 3.4zM160 352h32l128-64 192 48V448L320 512 128 480V384 352h32zM0 352H16 96v32H32v64H96v32H16 0V464 368 352z"/></svg>
